Yaru++/devices/16/drive-harddisk.svg

<svg height="16" width="16" xmlns="http://www.w3.org/2000/svg">
  <g fill="#808080">
    <path d="m4.994 0c-1.258.015-2.179-.03-2.931.385a1.88 1.88 0 0 0 -.838.998c-.165.439-.225.96-.225 1.617v10c0 .658.06 1.179.225 1.617.164.439.461.79.838.998.752.416 1.673.37 2.931.385h5.012c1.258-.014 2.179.03 2.932-.385a1.88 1.88 0 0 0 .838-.998c.164-.438.224-.96.224-1.617v-10c0-.658-.06-1.178-.225-1.617a1.88 1.88 0 0 0 -.837-.998c-.753-.415-1.674-.37-2.932-.385h-5.008zm.006 1h5c1.259.015 2.087.06 2.453.262.184.101.29.213.387.472.097.26.16.674.16 1.266v10c0 .592-.063 1.006-.16 1.266-.098.26-.203.371-.387.472-.366.202-1.194.247-2.453.262h-5c-1.258-.015-2.09-.06-2.455-.262-.183-.1-.287-.212-.385-.472-.097-.26-.16-.674-.16-1.266v-10c0-.592.063-1.006.16-1.266.098-.26.202-.371.385-.472.365-.202 1.195-.247 2.455-.262z"/>
    <path d="m7.795 5.012a4.487 4.487 0 0 0 -3.033.918 4.506 4.506 0 0 0 -1.16 5.82 4.508 4.508 0 0 0 5.62 1.908 4.51 4.51 0 0 0 2.628-5.324l-.131-.482-.967.26.13.482a3.494 3.494 0 0 1 -2.042 4.139 3.494 3.494 0 0 1 -4.371-1.483 3.494 3.494 0 0 1 5.12-4.547l-.644.645.707.707.676-.676h.002l.354-.355.353-.352-.353-.353a4.494 4.494 0 0 0 -2.889-1.307z"/>
    <path d="m7.5 8a1.5 1.5 0 0 0 -1.5 1.5 1.5 1.5 0 0 0 1.5 1.5 1.5 1.5 0 0 0 1.5-1.5 1.5 1.5 0 0 0 -1.5-1.5zm0 1a.5.5 0 0 1 .5.5.5.5 0 0 1 -.5.5.5.5 0 0 1 -.5-.5.5.5 0 0 1 .5-.5z"/>
  </g>
</svg>

<svg xmlns="http://www.w3.org/2000/svg" width="16" height="16">
 <g fill="#808080">
  <path d="M4.994 0C3.736.015 2.815-.03 2.063.385a1.88 1.88 0 0 0-.838.998C1.06 1.822 1 2.343 1 3v10c0 .658.06 1.179.225 1.617.164.439.461.79.838.998.752.416 1.673.37 2.931.385H10.006c1.258-.014 2.179.03 2.932-.385a1.88 1.88 0 0 0 .838-.998c.164-.438.224-.96.224-1.617V3c0-.658-.06-1.178-.225-1.617a1.88 1.88 0 0 0-.837-.998C12.185-.03 11.264.015 10.006 0H4.998zM5 1h5c1.259.015 2.087.06 2.453.262.184.101.29.213.387.472.097.26.16.674.16 1.266v10c0 .592-.063 1.006-.16 1.266-.098.26-.203.371-.387.472-.366.202-1.194.247-2.453.262H5c-1.258-.015-2.09-.06-2.455-.262-.183-.1-.287-.212-.385-.472C2.063 14.006 2 13.592 2 13V3c0-.592.063-1.006.16-1.266.098-.26.202-.371.385-.472C2.91 1.06 3.74 1.015 5 1z" color="#000" font-family="sans-serif" font-weight="400" overflow="visible"/>
  <path d="M7.795 5.012a4.487 4.487 0 0 0-3.033.918 4.506 4.506 0 0 0-1.16 5.82 4.508 4.508 0 0 0 5.62 1.908 4.51 4.51 0 0 0 2.628-5.324l-.131-.482-.967.26.13.482a3.494 3.494 0 0 1-2.042 4.139 3.494 3.494 0 0 1-4.371-1.483 3.494 3.494 0 0 1 5.12-4.547l-.644.645.707.707.676-.676h.002l.354-.355.353-.352-.353-.353a4.494 4.494 0 0 0-2.889-1.307z" color="#000" font-family="sans-serif" font-weight="400" overflow="visible"/>
  <path d="M7.5 8A1.5 1.5 0 0 0 6 9.5 1.5 1.5 0 0 0 7.5 11 1.5 1.5 0 0 0 9 9.5 1.5 1.5 0 0 0 7.5 8zm0 1a.5.5 0 0 1 .5.5.5.5 0 0 1-.5.5.5.5 0 0 1-.5-.5.5.5 0 0 1 .5-.5z"/>
 </g>
</svg>
